X:377
T:Jenny Latin
R:Reel
O:Scotland
S:Kerr's Fourth
B:Kerr's Fourth
Z:Transcription, slight arr., chords:Mike Long
M:C|
L:1/8
K:D
B|\
"D"DFAF "G"BGAF|"D"DFAF "A"d2 (df)|\
"D"(D/E/F/G/) AF "G"BGAF|"C"E=ccE "G"(G2 G):|\
g|\
"D"fddf "G"Afdg|"D"fddf "A"a2 (ab)|
"D"fddf "G"Afde|"C"=cdef "G"g2ga|\
"D"fddf "G"Afdg|"D"fddf "A"a2 (ab)|"G"afge "D"fdAF|"C"E=ccE "G"(G2 G)|]
